src/lib/packages/icons/src/assets/filled/bed-front.svg

<svg width="24" height="24" viewBox="0 0 24 24" fill="none" xmlns="http://www.w3.org/2000/svg">
<path d="M20.75 6V9.96001C20.13 9.58001 19.37 9.34999 18.5 9.28999V7.85001C18.5 7.10001 17.83 6.5 17 6.5H14C13.17 6.5 12.5 7.10001 12.5 7.85001V9.25H11.5V7.85001C11.5 7.10001 10.83 6.5 10 6.5H7C6.17 6.5 5.5 7.10001 5.5 7.85001V9.28999C4.63 9.34999 3.87 9.58001 3.25 9.96001V6C3.25 3.58 4.58 2.25 7 2.25H17C19.42 2.25 20.75 3.58 20.75 6ZM21.75 17V21C21.75 21.41 21.41 21.75 21 21.75C20.59 21.75 20.25 21.41 20.25 21V20.25H3.75V21C3.75 21.41 3.41 21.75 3 21.75C2.59 21.75 2.25 21.41 2.25 21V19.5V17V14C2.25 11.58 3.58 10.25 6 10.25H18C20.42 10.25 21.75 11.58 21.75 14V17ZM20.25 18.75V17.75H3.75V18.75H20.25Z" fill="currentColor"/>
</svg>

<svg xmlns="http://www.w3.org/2000/svg" width="24" height="24" fill="none"><path fill="currentColor" d="M20.75 6v3.96c-.62-.38-1.38-.61-2.25-.67V7.85c0-.75-.67-1.35-1.5-1.35h-3c-.83 0-1.5.6-1.5 1.35v1.4h-1v-1.4c0-.75-.67-1.35-1.5-1.35H7c-.83 0-1.5.6-1.5 1.35v1.44c-.87.06-1.63.29-2.25.67V6c0-2.42 1.33-3.75 3.75-3.75h10c2.42 0 3.75 1.33 3.75 3.75Zm1 11v4c0 .41-.34.75-.75.75s-.75-.34-.75-.75v-.75H3.75V21c0 .41-.34.75-.75.75s-.75-.34-.75-.75v-7c0-2.42 1.33-3.75 3.75-3.75h12c2.42 0 3.75 1.33 3.75 3.75v3Zm-1.5 1.75v-1H3.75v1h16.5Z"/></svg>
